X: 2466
T: Ballybranaghan Stomp, The
R: reel
M: 4/4
K: Dmajor
|:f2ed B3d|ADFA BGBd|AFAd Bcde|fdgf e2de|
f2ed B2AF|A3d B3d|AFAd Bcde|fdec d3e:|
|:f2fa f2ed|e3a f2ed|B2cd ABde|fdgf efde|
[1 f3a f2ed|e3a f2ed|BGdB ABde|fdec d2de:|
[2 f2ed B2AF|A3d B3d|AFAd Bcde|fdec d3e||

